public/static/lp/sensonomic.svg

<svg width="330" height="48" viewBox="0 0 330 48" fill="none" xmlns="http://www.w3.org/2000/svg">
<g clip-path="url(#clip0_12281_745)">
<path d="M69.2597 31.254C69.2597 29.9353 68.7586 28.9155 67.7565 28.1946C66.7719 27.456 65.0399 26.823 62.5607 26.2956C60.0991 25.768 58.1385 25.1351 56.6791 24.3966C55.2373 23.6581 54.1648 22.779 53.4615 21.7591C52.7757 20.7393 52.4328 19.526 52.4328 18.1195C52.4328 15.7809 53.4175 13.8028 55.3868 12.1851C57.3737 10.5675 59.9057 9.75864 62.9827 9.75864C66.218 9.75864 68.8381 10.5939 70.8423 12.2642C72.8641 13.9346 73.8756 16.071 73.8756 18.6733H68.9701C68.9701 17.337 68.3983 16.1853 67.2554 15.2182C66.1301 14.2512 64.7059 13.7676 62.9827 13.7676C61.2068 13.7676 59.8178 14.1544 58.8155 14.9281C57.8132 15.7018 57.3121 16.7128 57.3121 17.9611C57.3121 19.1393 57.7781 20.0272 58.71 20.625C59.6419 21.2228 61.3211 21.7943 63.7475 22.3394C66.1916 22.8844 68.17 23.5351 69.6819 24.2911C71.1939 25.0472 72.3105 25.9615 73.0311 27.034C73.7699 28.089 74.1389 29.3814 74.1389 30.9111C74.1389 33.4607 73.1193 35.5091 71.08 37.0564C69.0401 38.5862 66.3938 39.351 63.1409 39.351C60.8552 39.351 58.8331 38.9466 57.0748 38.1378C55.3165 37.329 53.9361 36.2036 52.934 34.7619C51.9493 33.3024 51.457 31.7288 51.457 30.0408H56.3363C56.4242 31.676 57.0748 32.9771 58.288 33.9443C59.5188 34.8937 61.1365 35.3685 63.1409 35.3685C64.9872 35.3685 66.4642 34.9993 67.5719 34.2607C68.6973 33.5047 69.2597 32.5024 69.2597 31.254ZM90.7171 39.351C86.8493 39.351 83.7015 38.085 81.275 35.5531C78.8485 33.0035 77.6356 29.6012 77.6356 25.3461V24.4494C77.6356 21.6185 78.1717 19.0953 79.2445 16.8798C80.3342 14.6468 81.8468 12.9061 83.781 11.6576C85.7327 10.3916 87.8427 9.75864 90.1103 9.75864C93.8204 9.75864 96.7042 10.9807 98.761 13.4247C100.818 15.8688 101.847 19.3678 101.847 23.9219V25.9527H82.5149C82.5849 28.766 83.4025 31.043 84.9677 32.7838C86.5503 34.5069 88.5546 35.3685 90.9811 35.3685C92.7038 35.3685 94.1639 35.0168 95.3593 34.3135C96.5547 33.6101 97.6006 32.6783 98.4977 31.5178L101.478 33.8387C99.0869 37.5136 95.5001 39.351 90.7171 39.351ZM90.1103 13.7676C88.1411 13.7676 86.4884 14.4886 85.1515 15.9304C83.816 17.3546 82.9897 19.3591 82.6732 21.9438H96.9675V21.5745C96.8275 19.0953 96.1594 17.1788 94.9633 15.8248C93.7679 14.4533 92.1502 13.7676 90.1103 13.7676ZM110.513 10.2862L110.671 13.8731C112.851 11.1302 115.7 9.75864 119.217 9.75864C125.248 9.75864 128.29 13.1611 128.342 19.9657V38.8236H123.463V19.9393C123.445 17.8821 122.971 16.3611 122.038 15.3765C121.124 14.3918 119.691 13.8995 117.74 13.8995C116.157 13.8995 114.768 14.3215 113.573 15.1655C112.377 16.0095 111.444 17.1172 110.777 18.4887V38.8236H105.897V10.2862H110.513ZM150.696 31.254C150.696 29.9353 150.196 28.9155 149.193 28.1946C148.209 27.456 146.476 26.823 143.997 26.2956C141.535 25.768 139.575 25.1351 138.116 24.3966C136.674 23.6581 135.601 22.779 134.898 21.7591C134.212 20.7393 133.87 19.526 133.87 18.1195C133.87 15.7809 134.854 13.8028 136.823 12.1851C138.81 10.5675 141.342 9.75864 144.42 9.75864C147.654 9.75864 150.274 10.5939 152.278 12.2642C154.301 13.9346 155.312 16.071 155.312 18.6733H150.407C150.407 17.337 149.835 16.1853 148.691 15.2182C147.567 14.2512 146.143 13.7676 144.42 13.7676C142.644 13.7676 141.254 14.1544 140.251 14.9281C139.25 15.7018 138.748 16.7128 138.748 17.9611C138.748 19.1393 139.214 20.0272 140.146 20.625C141.079 21.2228 142.757 21.7943 145.184 22.3394C147.628 22.8844 149.607 23.5351 151.118 24.2911C152.63 25.0472 153.747 25.9615 154.468 27.034C155.206 28.089 155.576 29.3814 155.576 30.9111C155.576 33.4607 154.556 35.5091 152.517 37.0564C150.477 38.5862 147.831 39.351 144.577 39.351C142.291 39.351 140.27 38.9466 138.511 38.1378C136.753 37.329 135.373 36.2036 134.371 34.7619C133.386 33.3024 132.894 31.7288 132.894 30.0408H137.773C137.861 31.676 138.511 32.9771 139.724 33.9443C140.956 34.8937 142.573 35.3685 144.577 35.3685C146.424 35.3685 147.901 34.9993 149.008 34.2607C150.134 33.5047 150.696 32.5024 150.696 31.254ZM194.113 10.2862L194.27 13.8731C196.451 11.1302 199.3 9.75864 202.816 9.75864C208.847 9.75864 211.888 13.1611 211.942 19.9657V38.8236H207.062V19.9393C207.045 17.8821 206.57 16.3611 205.638 15.3765C204.724 14.3918 203.291 13.8995 201.339 13.8995C199.757 13.8995 198.367 14.3215 197.172 15.1655C195.976 16.0095 195.044 17.1172 194.376 18.4887V38.8236H189.497V10.2862H194.113ZM251.454 10.2862L251.586 13.4511C253.678 10.9895 256.5 9.75864 260.052 9.75864C264.044 9.75864 266.76 11.2884 268.203 14.3479C269.151 12.9764 270.383 11.8686 271.894 11.0246C273.424 10.1806 275.227 9.75864 277.301 9.75864C283.561 9.75864 286.743 13.0731 286.848 19.7019V38.8236H281.97V19.9921C281.97 17.9524 281.504 16.4315 280.571 15.4292C279.64 14.4094 278.075 13.8995 275.877 13.8995C274.066 13.8995 272.563 14.4446 271.367 15.5347C270.171 16.6073 269.477 18.0579 269.283 19.8865V38.8236H264.377V20.1239C264.377 15.9743 262.347 13.8995 258.285 13.8995C255.085 13.8995 252.896 15.2621 251.717 17.9875V38.8236H246.838V10.2862H251.454ZM297.915 38.8236H293.036V10.2862H297.915V38.8236ZM292.64 2.71662C292.64 1.92538 292.877 1.25722 293.353 0.712148C293.844 0.16707 294.565 -0.105469 295.514 -0.105469C296.464 -0.105469 297.185 0.16707 297.678 0.712148C298.17 1.25722 298.416 1.92538 298.416 2.71662C298.416 3.50786 298.17 4.16723 297.678 4.69472C297.185 5.22222 296.464 5.48596 295.514 5.48596C294.565 5.48596 293.844 5.22222 293.353 4.69472C292.877 4.16723 292.64 3.50786 292.64 2.71662ZM315.574 35.3685C317.315 35.3685 318.836 34.8409 320.137 33.786C321.438 32.731 322.16 31.4123 322.3 29.8298H326.915C326.827 31.465 326.264 33.0211 325.227 34.4981C324.19 35.9751 322.801 37.1531 321.06 38.0323C319.337 38.9115 317.508 39.351 315.574 39.351C311.688 39.351 308.594 38.0588 306.291 35.4739C304.004 32.8717 302.861 29.3199 302.861 24.8186V24.001C302.861 21.2229 303.371 18.7525 304.391 16.5897C305.411 14.4271 306.87 12.7479 308.77 11.5522C310.686 10.3565 312.946 9.75864 315.547 9.75864C318.748 9.75864 321.403 10.7169 323.513 12.6335C325.641 14.5501 326.774 17.0381 326.915 20.0975H322.3C322.16 18.2513 321.456 16.7391 320.19 15.5611C318.941 14.3654 317.394 13.7676 315.547 13.7676C313.069 13.7676 311.144 14.6644 309.772 16.4578C308.417 18.2337 307.741 20.8096 307.741 24.1856V25.1087C307.741 28.3968 308.417 30.9287 309.772 32.7046C311.126 34.4805 313.06 35.3685 315.574 35.3685Z" fill="#979AAD"/>
<path d="M159.02 24.2911C159.02 21.4955 159.565 18.981 160.654 16.748C161.763 14.5149 163.292 12.7917 165.244 11.5786C167.213 10.3653 169.455 9.75867 171.969 9.75867C175.856 9.75867 178.994 11.1037 181.386 13.794C183.794 16.4842 184.999 20.0624 184.999 24.5285V24.8714C184.999 27.6495 184.463 30.1463 183.39 32.3618C182.335 34.5597 180.814 36.2741 178.826 37.5049C176.857 38.7356 174.59 39.351 172.022 39.351C168.154 39.351 165.016 38.0059 162.607 35.3157C160.215 32.6254 159.02 29.065 159.02 24.634V24.2911ZM163.925 24.8714C163.925 28.0364 164.655 30.5771 166.114 32.4936C167.591 34.4102 169.56 35.3685 172.022 35.3685C174.501 35.3685 176.471 34.4014 177.93 32.4673C179.39 30.5155 180.12 27.7902 180.12 24.2911C180.12 21.1613 179.371 18.6293 177.877 16.6952C176.4 14.7435 174.431 13.7676 171.969 13.7676C169.56 13.7676 167.617 14.7259 166.14 16.6425C164.663 18.559 163.925 21.302 163.925 24.8714ZM216.387 24.2911C216.387 21.4955 216.933 18.981 218.023 16.748C219.13 14.5149 220.66 12.7917 222.611 11.5786C224.581 10.3653 226.823 9.75867 229.337 9.75867C233.223 9.75867 236.362 11.1037 238.753 13.794C241.161 16.4842 242.366 20.0624 242.366 24.5285V24.8714C242.366 27.6495 241.83 30.1463 240.757 32.3618C239.703 34.5597 238.181 36.2741 236.195 37.5049C234.226 38.7356 231.957 39.351 229.39 39.351C225.521 39.351 222.383 38.0059 219.974 35.3157C217.583 32.6254 216.387 29.065 216.387 24.634V24.2911ZM221.293 24.8714C221.293 28.0364 222.023 30.5771 223.482 32.4936C224.959 34.4102 226.929 35.3685 229.39 35.3685C231.87 35.3685 233.838 34.4014 235.298 32.4673C236.758 30.5155 237.487 27.7902 237.487 24.2911C237.487 21.1613 236.74 18.6293 235.246 16.6952C233.769 14.7435 231.8 13.7676 229.337 13.7676C226.929 13.7676 224.986 14.7259 223.509 16.6425C222.032 18.559 221.293 21.302 221.293 24.8714Z" fill="#A9ACBC"/>
<path d="M44.5413 3.32111L26.1636 21.9438L7.78601 3.32111H44.5413Z" fill="#979AAD"/>
<path d="M4.41016 5.00909L22.7878 23.6317L4.41016 42.2543L4.41016 5.00909Z" fill="#A9ACBC"/>
<path d="M7.78601 43.9424L26.1636 25.3198L44.5413 43.9424H7.78601Z" fill="#979AAD"/>
</g>
<defs>
<clipPath id="clip0_12281_745">
<rect width="330" height="47.2634" fill="white"/>
</clipPath>
</defs>
</svg>

<svg xmlns="http://www.w3.org/2000/svg" width="330" height="48" fill="none"><g clip-path="url(#a)"><path fill="#979AAD" d="M69.26 31.254c0-1.319-.501-2.338-1.504-3.06-.984-.738-2.716-1.371-5.195-1.898-2.462-.528-4.422-1.16-5.882-1.9-1.442-.738-2.514-1.617-3.218-2.637-.685-1.02-1.028-2.233-1.028-3.64 0-2.338.984-4.316 2.954-5.934 1.987-1.617 4.519-2.426 7.596-2.426 3.235 0 5.855.835 7.86 2.505 2.021 1.67 3.033 3.807 3.033 6.41H68.97c0-1.337-.572-2.489-1.715-3.456-1.125-.967-2.55-1.45-4.272-1.45-1.776 0-3.165.386-4.167 1.16-1.003.774-1.504 1.785-1.504 3.033 0 1.178.466 2.066 1.398 2.664.932.598 2.611 1.17 5.038 1.714 2.444.545 4.422 1.196 5.934 1.952 1.512.756 2.629 1.67 3.35 2.743.738 1.055 1.107 2.347 1.107 3.877 0 2.55-1.02 4.598-3.059 6.145-2.04 1.53-4.686 2.295-7.94 2.295-2.285 0-4.307-.404-6.065-1.213-1.759-.809-3.139-1.934-4.141-3.376-.985-1.46-1.477-3.033-1.477-4.721h4.88c.087 1.635.738 2.936 1.951 3.903 1.23.95 2.849 1.424 4.853 1.424 1.846 0 3.323-.369 4.43-1.107 1.126-.756 1.689-1.759 1.689-3.007Zm21.457 8.097c-3.868 0-7.016-1.266-9.442-3.798-2.427-2.55-3.64-5.952-3.64-10.207v-.897c0-2.83.537-5.354 1.61-7.57 1.09-2.232 2.602-3.973 4.536-5.221 1.952-1.266 4.062-1.9 6.33-1.9 3.71 0 6.593 1.223 8.65 3.667 2.057 2.444 3.086 5.943 3.086 10.497v2.03H82.515c.07 2.814.888 5.091 2.453 6.832 1.582 1.723 3.587 2.584 6.013 2.584 1.723 0 3.183-.351 4.378-1.055 1.196-.703 2.242-1.635 3.139-2.795l2.98 2.32c-2.391 3.676-5.978 5.513-10.76 5.513Zm-.607-25.583c-1.969 0-3.622.72-4.959 2.162-1.335 1.425-2.161 3.43-2.478 6.014h14.294v-.37c-.14-2.479-.808-4.395-2.004-5.75-1.195-1.37-2.813-2.056-4.853-2.056Zm20.403-3.482.158 3.587c2.18-2.743 5.029-4.114 8.546-4.114 6.031 0 9.073 3.402 9.125 10.207v18.858h-4.879V19.939c-.018-2.057-.492-3.578-1.425-4.563-.914-.984-2.347-1.476-4.298-1.476-1.583 0-2.972.421-4.167 1.265-1.196.845-2.129 1.952-2.796 3.324v20.335h-4.88V10.286h4.616Zm40.183 20.968c0-1.319-.5-2.338-1.503-3.06-.984-.738-2.717-1.371-5.196-1.898-2.462-.528-4.422-1.16-5.881-1.9-1.442-.738-2.515-1.617-3.218-2.637-.686-1.02-1.028-2.233-1.028-3.64 0-2.338.984-4.316 2.953-5.934 1.987-1.617 4.519-2.426 7.597-2.426 3.234 0 5.854.835 7.858 2.505 2.023 1.67 3.034 3.807 3.034 6.41h-4.905c0-1.337-.572-2.489-1.716-3.456-1.124-.967-2.548-1.45-4.271-1.45-1.776 0-3.166.386-4.169 1.16-1.001.774-1.503 1.785-1.503 3.033 0 1.178.466 2.066 1.398 2.664.933.598 2.611 1.17 5.038 1.714 2.444.545 4.423 1.196 5.934 1.952 1.512.756 2.629 1.67 3.35 2.743.738 1.055 1.108 2.347 1.108 3.877 0 2.55-1.02 4.598-3.059 6.145-2.04 1.53-4.686 2.295-7.94 2.295-2.286 0-4.307-.404-6.066-1.213-1.758-.809-3.138-1.934-4.14-3.376-.985-1.46-1.477-3.033-1.477-4.721h4.879c.088 1.635.738 2.936 1.951 3.903 1.232.95 2.849 1.424 4.853 1.424 1.847 0 3.324-.369 4.431-1.107 1.126-.756 1.688-1.759 1.688-3.007Zm43.417-20.968.157 3.587c2.181-2.743 5.03-4.114 8.546-4.114 6.031 0 9.072 3.402 9.126 10.207v18.858h-4.88V19.939c-.017-2.057-.492-3.578-1.424-4.563-.914-.984-2.347-1.476-4.299-1.476-1.582 0-2.972.421-4.167 1.265-1.196.845-2.128 1.952-2.796 3.324v20.335h-4.879V10.286h4.616Zm57.341 0 .132 3.165c2.092-2.462 4.914-3.692 8.466-3.692 3.992 0 6.708 1.53 8.151 4.589.948-1.372 2.18-2.48 3.691-3.323 1.53-.844 3.333-1.266 5.407-1.266 6.26 0 9.442 3.314 9.547 9.943v19.122h-4.878V19.992c0-2.04-.466-3.56-1.399-4.563-.931-1.02-2.496-1.53-4.694-1.53-1.811 0-3.314.546-4.51 1.636-1.196 1.072-1.89 2.523-2.084 4.352v18.937h-4.906v-18.7c0-4.15-2.03-6.224-6.092-6.224-3.2 0-5.389 1.362-6.568 4.088v20.836h-4.879V10.286h4.616Zm46.461 28.538h-4.879V10.286h4.879v28.538ZM292.64 2.717c0-.792.237-1.46.713-2.005.491-.545 1.212-.817 2.161-.817.95 0 1.671.272 2.164.817.492.545.738 1.213.738 2.005 0 .79-.246 1.45-.738 1.978-.493.527-1.214.791-2.164.791-.949 0-1.67-.264-2.161-.791-.476-.528-.713-1.187-.713-1.978Zm22.934 32.651c1.741 0 3.262-.527 4.563-1.582 1.301-1.055 2.023-2.374 2.163-3.956h4.615c-.088 1.635-.651 3.191-1.688 4.668-1.037 1.477-2.426 2.655-4.167 3.534a11.906 11.906 0 0 1-5.486 1.319c-3.886 0-6.98-1.292-9.283-3.877-2.287-2.602-3.43-6.154-3.43-10.655V24c0-2.778.51-5.248 1.53-7.411 1.02-2.163 2.479-3.842 4.379-5.038 1.916-1.195 4.176-1.793 6.777-1.793 3.201 0 5.856.958 7.966 2.874 2.128 1.917 3.261 4.405 3.402 7.465H322.3c-.14-1.847-.844-3.359-2.11-4.537-1.249-1.196-2.796-1.793-4.643-1.793-2.478 0-4.403.896-5.775 2.69-1.355 1.776-2.031 4.352-2.031 7.728v.923c0 3.288.676 5.82 2.031 7.596 1.354 1.776 3.288 2.663 5.802 2.663Z"/><path fill="#A9ACBC" d="M159.02 24.291c0-2.796.545-5.31 1.634-7.543 1.109-2.233 2.638-3.956 4.59-5.17 1.969-1.213 4.211-1.82 6.725-1.82 3.887 0 7.025 1.346 9.417 4.036 2.408 2.69 3.613 6.268 3.613 10.735v.342c0 2.779-.536 5.275-1.609 7.49-1.055 2.199-2.576 3.913-4.564 5.144-1.969 1.23-4.236 1.846-6.804 1.846-3.868 0-7.006-1.345-9.415-4.035-2.392-2.69-3.587-6.251-3.587-10.682v-.343Zm4.905.58c0 3.165.73 5.706 2.189 7.623 1.477 1.916 3.446 2.874 5.908 2.874 2.479 0 4.449-.967 5.908-2.9 1.46-1.953 2.19-4.678 2.19-8.177 0-3.13-.749-5.662-2.243-7.596-1.477-1.952-3.446-2.927-5.908-2.927-2.409 0-4.352.958-5.829 2.874-1.477 1.917-2.215 4.66-2.215 8.23Zm52.462-.58c0-2.796.546-5.31 1.636-7.543 1.107-2.233 2.637-3.956 4.588-5.17 1.97-1.213 4.212-1.82 6.726-1.82 3.886 0 7.025 1.346 9.416 4.036 2.408 2.69 3.613 6.268 3.613 10.735v.342c0 2.779-.536 5.275-1.609 7.49-1.054 2.199-2.576 3.913-4.562 5.144-1.969 1.23-4.238 1.846-6.805 1.846-3.869 0-7.007-1.345-9.416-4.035-2.391-2.69-3.587-6.251-3.587-10.682v-.343Zm4.906.58c0 3.165.73 5.706 2.189 7.623 1.477 1.916 3.447 2.874 5.908 2.874 2.48 0 4.448-.967 5.908-2.9 1.46-1.953 2.189-4.678 2.189-8.177 0-3.13-.747-5.662-2.241-7.596-1.477-1.952-3.446-2.927-5.909-2.927-2.408 0-4.351.958-5.828 2.874-1.477 1.917-2.216 4.66-2.216 8.23Z"/><path fill="#979AAD" d="M44.541 3.321 26.164 21.944 7.786 3.32h36.755Z"/><path fill="#A9ACBC" d="m4.41 5.01 18.378 18.622L4.41 42.254V5.01Z"/><path fill="#979AAD" d="M7.786 43.942 26.164 25.32 44.54 43.942H7.786Z"/></g><defs><clipPath id="a"><path fill="#fff" d="M0 0h330v47.263H0z"/></clipPath></defs></svg>
